X:27
T:Yambu
M:C|
C:© Paul Gitlitz
L:1/8
K:A
"A"c3c- cBAB|"C#m"cAeA cAzz|"E7"GB2e- efed|"F#m"cdef "E"edAB|!
"A"c3c- cBAB|"C#m"cAeA cABA|"E7"GB2e- "F#m"efed |"E7"cABc "A"A2AB:|!
:"D"[d3f3]f- "Bm"fed2|"A"[c3e3]e- "C#m"edc2|"E"[G3B3]B- "E7/B"BdcB|"A"cd2e-
"A7"ef2=g|!
"D"[d3f3]f- fagf|"A"ec3A- AABA|"E7"GB2e- efed |1cABc "A"Acde:|2cABc
"A"A2zz|]
W: Written bouncing (rebounder) into Graceland to an African rhythm of the
same name.

